cdn/fa/svgs/sharp-light/down-to-bracket.svg

<svg xmlns="http://www.w3.org/2000/svg" viewBox="0 0 448 512"><!--! Font Awesome Pro 6.5.2 by @fontawesome - https://fontawesome.com License - https://fontawesome.com/license (Commercial License) Copyright 2024 Fonticons, Inc. --><path d="M272 144l0 32 32 0 48 0 0 17.7L224 308.9 96 193.7 96 176l48 0 32 0 0-32 0-112 96 0 0 112zm112 0l-32 0-16 0-32 0 0-32 0-80 0-32L272 0 176 0 144 0l0 32 0 80 0 32-32 0-16 0-32 0 0 32 0 32L224 352 384 208l0-32 0-32zM32 336l0-16L0 320l0 16L0 496l0 16 16 0 416 0 16 0 0-16 0-160 0-16-32 0 0 16 0 144L32 480l0-144z"/></svg>

<svg xmlns="http://www.w3.org/2000/svg" viewBox="0 0 448 512"><!--! Font Awesome Pro 6.5.1 by @fontawesome - https://fontawesome.com License - https://fontawesome.com/license (Commercial License) Copyright 2023 Fonticons, Inc. --><path d="M272 144v32h32 48v17.7L224 308.9 96 193.7V176h48 32V144 32h96V144zm112 0H352 336 304V112 32 0H272 176 144V32v80 32H112 96 64v32 32L224 352 384 208V176 144zM32 336V320H0v16V496v16H16 432h16V496 336 320H416v16V480H32V336z"/></svg>
